svgs/thin/turkish-lira-sign.svg

<svg xmlns="http://www.w3.org/2000/svg" viewBox="0 0 384 512"><!--! Font Awesome Pro 6.3.0 by @fontawesome - https://fontawesome.com License - https://fontawesome.com/license (Commercial License) Copyright 2023 Fonticons, Inc. --><path d="M88 32C92.42 32 96 35.58 96 40V131.1L278.2 88.21C282.5 87.2 286.8 89.87 287.8 94.17C288.8 98.47 286.1 102.8 281.8 103.8L96 147.5V227.1L278.2 184.2C282.5 183.2 286.8 185.9 287.8 190.2C288.8 194.5 286.1 198.8 281.8 199.8L96 243.5V440C96 453.3 106.7 464 120 464H198.6C288.9 464 363 392.7 366.5 302.5L368 263.7C368.2 259.3 371.9 255.8 376.3 256C380.7 256.2 384.2 259.9 383.1 264.3L382.5 303.1C378.7 401.9 297.5 480 198.6 480H120C97.91 480 80 462.1 80 440V247.3L9.834 263.8C5.533 264.8 1.226 262.1 .2144 257.8C-.7974 253.5 1.868 249.2 6.169 248.2L80 230.8V151.3L9.834 167.8C5.533 168.8 1.226 166.1 .2144 161.8C-.7974 157.5 1.868 153.2 6.169 152.2L80 134.8V40C80 35.58 83.58 32 88 32V32z"/></svg>

<svg xmlns="http://www.w3.org/2000/svg" viewBox="0 0 384 512"><!--! Font Awesome Pro 6.4.0 by @fontawesome - https://fontawesome.com License - https://fontawesome.com/license (Commercial License) Copyright 2023 Fonticons, Inc. --><path d="M88 32c4.4 0 8 3.6 8 8v91.1L278.2 88.2c4.3-1 8.6 1.7 9.6 6s-1.7 8.6-6 9.6L96 147.5v79.6l182.2-42.9c4.3-1 8.6 1.7 9.6 6s-1.7 8.6-6 9.6L96 243.5V440c0 13.3 10.7 24 24 24h78.6c90.3 0 164.4-71.3 167.9-161.5l1.5-38.8c.2-4.4 3.9-7.9 8.3-7.7s7.9 3.9 7.7 8.3l-1.5 38.8c-3.8 98.8-85 176.9-183.9 176.9H120c-22.1 0-40-17.9-40-40V247.3L9.8 263.8c-4.3 1-8.6-1.7-9.6-6s1.7-8.6 6-9.6L80 230.8V151.3L9.8 167.8c-4.3 1-8.6-1.7-9.6-6s1.7-8.6 6-9.6L80 134.8V40c0-4.4 3.6-8 8-8z"/></svg>
